X:878
T:Rozsa
C:Undine Hornby (Late Night Band)
N:For the dance by Gordon Potts.  Originally in 6/8
M:3/4
R:Waltz
L:1/8
%%MIDI program 68     Oboe
%%MIDI chordprog 45   Pizzicato Strings
%%MIDI bassprog 32    Acoustic Bass
%%MIDI beat 100 95 80
S:Colin Hume's website,  colinhume.com  - chords can also be printed below the stave.
Q:1/4=112
K:Dm
P:A
B AF |: "Dm"D2 DF Ad | "Dm"f2 fd Ad | "Gm"B2 GA Bd | "A7"AB AG FE | "Dm"D2 DF Ad | "Dm"f2 fd Ad | "Gm"B2 GA Bd |1 "A7"A3G FE :|2 "A7"A6 |]
P:B
|: "Bb"B2 de f2 | "Dm"A2 de f2 | "A7"ef g2 fe | "Dm"f2e2d2 | "Bb"Bd ef ed | "Dm"Ad ef ed | "A7"ef g2 fe | "Dm"d6 :|

